X: 33250
T: Pull The Knife And Stick It Again
R: jig
M: 6/8
K: Bminor
|:~B3 dcB|Aec AcA|~B3 dBA|dfd edc|
~B3 dcB|Aec ABc|dcB cBA|1 Bcd B3:|2 Bcd B2f||
|:~b3 ~f3|def afa|~b3 ~f3|dcB A2a|
~b3 ~f3|def afe|dcB cBA|1 Bcd B2f:|2 Bcd B3||

